X: 37
T:Gary Owen
M:6/8
L:1/8
Q:120
R:Jig
K:A
ag|"A"fed cBA|cdc c2a/2g/2|fed cBA|"E"BcB B2a/2g/2|
"A"fed cBA|cdc c2e|"E"efg "A"aec|"E"BcB B::
cd|"A"e2ce2c|e2c eag|"D"f2df2d|f2d f2g|
"A"a2bc'2b|"D"agf "A"e2c|"E"efg "A"aec|
1 "E"BcB "E7"B:|2 "E"BcB "A"A
